X:63
T: St Marc - Lei grci de St Marc
O:France
A:Provence
C:Trad.
R:Danse trad.
S:Carnet du tambourinaire Ginas (1924)
Z:Transcrit et/ou corrig par Michel BELLON - 2005-03-03
Z:Pour toute observation mailto:galouvielle@free.fr
M:2/4
L:1/8
K:Eb
V:Galoubet
BBcd | e2e2 | ffcd | e2z2 | BBcd | e2e2 | ffcd | e2z>e | f>f fg | a>g fe | decf | B2zB/c/ | d2c2 | B2zf/a/ | g2f2 | e2z2 |]
%%footer $D   Galouvielle-MBe 2008 \nDanse XIIIe (France)
